X: 54
T: Artsa Alinu
M: C
L: 1/8
K: Dm
|: "Dm"DA2G A2G2 | "Gm"FG2F G2F2 | "Dm"DD2C "A7"(F2E2) | "Dm"D6 z2 :|
w: Ar-tsa a-li-nu ar-tsa a-li-nu ar-tsa a-li-*nu.
| "F"A3B c2d2 | "Dm"AA2G (AG)F2 | "F"A3B c2d2 | "Dm"AA2G (AG)F2 
w: k'var cha-rash-nu v'-gam za-ra-*nu, k'var cha-rash-nu v'-gam za-ra-*nu
| "Gm"FG2F G2F2 | "Dm"D4 D4 | "Am"CD2C "A7"(F2E2) | "Dm"D4 D4 |]
w: a-val od lo ka-tsar-nu, a-val od lo ka-tsar-nu.



